X:313
H:The Following 5 airs (to "The Sailor Boy", #317) were sent to me in 1873 by
H:Mr. J. C. MacGowan of Newtownards, a good amateur Musician.
H:
T:The Ship Went Down With All On Board
A:Down
O:Irish
R:song air
H:Mr. MacGowan informs me that this air was current in Donaghadee since his
H:childhood, and that many ballads were composed to it, all Laments for the loss
H:of vessels or sailors.
L:1/8
M:3/4
K:G
"Slow"\
E/>F/|\
GF/E/ B2 AF|EE/F/ G>A BA|Be B2 AF|EE D3 E/>F/|
GF/E/ B2 AF|EE/F/ G>A BA|Be B2 AF|EE E3||A|
BB g>e fg/a/|gf e>d BA|BB g>e fg/a/|gf e3 e/>f/|
gf e>d BA|BB A>F ED|E/F/G/A/ B2 AF|EE E3||


